common/svg/inspect-element-icon.svg

<svg fill="none" height="20" viewBox="0 0 20 20" width="20" xmlns="http://www.w3.org/2000/svg"><g fill="#000"><path clip-rule="evenodd" d="m2.33124 2.35229 17.66866-.00001v-2.35228l-19.99983164.00000806-.00006836 19.99999194h2.33118z" fill-rule="evenodd"/><path d="m4.65332 17.6477h2.33118v2.3523h-2.33118z"/><path d="m9.03809 17.6477h2.33121v2.3523h-2.33121z"/><path d="m13.423 17.6477h2.3312v2.3523h-2.3312z"/><path d="m20 4.53525v2.35228h-2.3312v-2.35228z"/><path d="m20 8.9597v2.3523h-2.3312v-2.3523z"/><path d="m19.9999 13.3843v2.3522h-2.3312v-2.3522z"/><path d="m17.6687 17.6477h2.3312v2.3523h-2.3312z"/></g></svg>

<svg width="20" height="20" viewBox="0 0 20 20" fill="none" xmlns="http://www.w3.org/2000/svg">
<path fill-rule="evenodd" clip-rule="evenodd" d="M2.33124 2.35229L19.9999 2.35228V0L6.8363e-05 8.06189e-06L0 20L2.33118 20L2.33124 2.35229Z" fill="black"/>
<path d="M4.65332 17.6477H6.9845V20H4.65332V17.6477Z" fill="black"/>
<path d="M9.03809 17.6477H11.3693V20H9.03809V17.6477Z" fill="black"/>
<path d="M13.423 17.6477H15.7542V20H13.423V17.6477Z" fill="black"/>
<path d="M20 4.53525V6.88753L17.6688 6.88753V4.53525H20Z" fill="black"/>
<path d="M20 8.9597V11.312H17.6688V8.9597H20Z" fill="black"/>
<path d="M19.9999 13.3843V15.7365H17.6687V13.3843H19.9999Z" fill="black"/>
<path d="M17.6687 17.6477H19.9999V20H17.6687V17.6477Z" fill="black"/>
</svg>
